X:14
T:Gypsy Princess
R:barndance
Z:id:hn-barndance-14
M:C|
L:1/8
K:G
GA | B2B2 B2B2 | ABAG E2D2 | G2GB d3B | dedB AGGA |
B2BB B2BB | ABAG E2D2 | G2GB dedB |1 A2G2 G2 :|2 A2G2 G2 ||
|: Bc | d2de g3e | dedB AGGA | d2de g3e | dedB A2Bc |
d2de g3e | dedB A2G2 | G2GB dedB |1 A2G2 G2 :|2 A2G2 G2 ||

